assets/images/icons/krestik.svg

<svg width="25" height="26" viewBox="0 0 25 26" fill="none" xmlns="http://www.w3.org/2000/svg">
<circle cx="12.5" cy="13.1519" r="12" stroke="#79655E"/>
<path fill-rule="evenodd" clip-rule="evenodd" d="M13.2071 13.1517L16.9881 9.37068L16.281 8.66357L12.5 12.4446L8.71896 8.66357L8.01185 9.37068L11.7929 13.1517L8.01185 16.9327L8.71896 17.6398L12.5 13.8588L16.281 17.6398L16.9881 16.9327L13.2071 13.1517Z" fill="#79655E"/>
</svg>

<svg width="25" height="26" fill="none" xmlns="http://www.w3.org/2000/svg"><circle cx="12.5" cy="13.152" r="12" stroke="#79655E"/><path fill-rule="evenodd" clip-rule="evenodd" d="M13.207 13.152l3.781-3.781-.707-.707-3.781 3.78-3.781-3.78-.707.707 3.78 3.78-3.78 3.782.707.707 3.781-3.781 3.781 3.78.707-.706-3.78-3.781z" fill="#79655E"/></svg>
